X:427
T:Lord of Carnarvon's Jig
%%subtitlefont Times-Roman 28
M:4/4
L:1/8
C:John Playford, 1651
Q:1/2=105
K:G
P:A
|: z2 | "G"B2G2 "/"Bc d2 | "Am"c2A2 "D7"ABcd | "G"B2 G2 "D7"d2 ef | "Em"g4 "D7"d2 :|
P:B
|: ef | "G"gfed "/"g3B | "Am"A2 A2 "D7"c2 dc | "G"B2 G2 "D7"b3 a | "G"g4 "D7"d2 :|
N:Replace by blank line and X field
T:Jack a Lent
C:John Playford, 1651
S:Colin Hume's website,  colinhume.com  - chords can also be printed below the stave.
N:Cecil Sharp used the tune "Jack a Lent" but the original is just as good.
N:Once through the dance is twice through the tune, so play each tune twice and alternate.
Q:1/2=105
M:4/4
L:1/8
K:G
P:A
|: "G"d4 "/"d2 cB | "Am"AGAB "D7"c2 BA | "Em"G2 "/"G2 G2 g2 | "Bm"f4 "C"e4 :|
P:B
|: "G"B3 c "/"d2 cB | "Am"AGAB "D7"ABcd | "Em"BcBA "/"G2 ga | "B7"fefg "Em"e4 :|

